X: 287
T:The Old Horned Sheep or The Humours Of Donnybrook
% Nottingham Music Database
S:Trad, arr Phil Rowe
M:6/8
K:G
(3d/2e/2f/2|"G"g2G GFG|"C"EGG "G"DGG|"G"g2G GFG|"A7"EAG "D7"FED|
"G"g2G GFG|"C"EGG "G"DGG|"C"EGG "D7"FGA| [1"G"BGG G2:|
 [2"G"BGG G2D|:"G"Bdd dBG|Bdd d2G|"G"Bdd dBG|"Am"cBc "D7"A2c|
"G"Bdd dBG|"G"Bdd "D7"def|"Em"gfe dcB|"Am"ABG "D7"FED:|<end>
<start>
